icons/Kali-Dark.svg

<svg width="256" height="256" viewBox="0 0 256 256" fill="none" xmlns="http://www.w3.org/2000/svg">
<g clip-path="url(#clip0_33_891)">
<path d="M196 0H60C26.8629 0 0 26.8629 0 60V196C0 229.137 26.8629 256 60 256H196C229.137 256 256 229.137 256 196V60C256 26.8629 229.137 0 196 0Z" fill="#242938"/>
<g clip-path="url(#clip1_33_891)">
<path d="M127.999 198.984C167.202 198.984 198.983 167.204 198.983 128C198.983 88.7965 167.202 57.0157 127.999 57.0157C88.7949 57.0157 57.0142 88.7965 57.0142 128C57.0142 167.204 88.7949 198.984 127.999 198.984Z" fill="url(#paint0_linear_33_891)"/>
<path opacity="0.3" d="M198.913 126.039C198.55 144.612 190.921 162.302 177.663 175.314C164.405 188.326 146.575 195.622 127.998 195.637C109.519 195.625 91.7717 188.408 78.5295 175.518C65.2873 162.628 57.5939 145.082 57.0844 126.609C57.0568 127.072 57.0337 127.535 57.0151 127.998C57.0151 146.824 64.4938 164.879 77.806 178.192C91.1181 191.504 109.173 198.982 128 198.982C137.321 198.982 146.552 197.146 155.164 193.579C163.776 190.012 171.602 184.783 178.193 178.192C184.785 171.6 190.013 163.775 193.581 155.163C197.148 146.55 198.984 137.32 198.984 127.998C198.97 127.344 198.947 126.691 198.915 126.038L198.913 126.039Z" fill="black"/>
<path opacity="0.1" d="M127.999 57.0162C109.172 57.0162 91.1172 64.4949 77.805 77.8071C64.4929 91.1192 57.0142 109.174 57.0142 128.001C57.0282 128.653 57.0513 129.306 57.0834 129.958C57.4473 111.386 65.0767 93.6964 78.3345 80.6855C91.5923 67.6746 109.422 60.3789 127.998 60.3641C146.477 60.3753 164.223 67.5924 177.465 80.4814C190.707 93.3705 198.401 110.915 198.912 129.388C198.939 128.926 198.962 128.464 198.981 128.002C198.981 118.68 197.145 109.45 193.577 100.838C190.01 92.2253 184.782 84.4001 178.19 77.8086C171.598 71.2171 163.773 65.9884 155.161 62.4211C146.549 58.8538 137.318 57.0177 127.996 57.0177L127.999 57.0162Z" fill="white"/>
<path opacity="0.3" d="M56.1005 79.6485C44.6076 79.6616 37.0158 80.5869 36.9529 80.5946C36.9526 80.5946 36.9094 80.5985 36.9094 80.5985C36.1591 80.6848 36.2545 81.8025 37.0086 81.7604C37.0086 81.7604 78.7976 79.7861 112.294 93.2487C113.489 98.3616 116.645 106.199 118.509 110.364C115.971 112.106 113.248 113.875 111.008 116.681C108.657 119.626 106.88 123.691 106.406 129.907C105.446 142.515 116.26 153.553 129.634 153.893C142.036 154.553 150.468 154.644 160.733 159.964C165.527 162.618 169.991 168.073 173.326 174.737C176.662 181.404 178.876 189.27 179.273 196.688C179.31 197.417 180.382 197.43 180.437 196.703C180.439 196.68 180.436 196.649 180.438 196.626C180.869 190.946 180.03 182.154 176.625 173.79C173.773 166.784 169.061 160.114 161.816 155.931C172.228 158.774 178.189 164.059 181.616 168.887C185.547 174.428 186.128 179.358 186.124 179.331C186.207 180.028 187.224 180.012 187.285 179.313C187.285 179.313 187.802 173.269 183.631 166.609C179.461 159.95 170.607 152.671 152.149 149.962C147.474 149.276 141.573 148.749 135.594 148.734C135.591 148.734 135.588 148.734 135.585 148.734C121.115 148.925 113.821 140.678 112.685 132.218C112.118 127.989 113.111 123.704 115.568 120.384C118.025 117.065 121.935 114.688 127.323 114.266H127.326C136.172 113.536 146.962 118.321 157.572 123.258C157.562 124.484 157.671 125.721 158.567 126.841C159.166 127.591 160.249 128.112 161.351 128.632C162.452 129.152 163.586 129.624 164.035 129.882C165.058 130.469 168.468 132.656 170.479 135.273C170.737 135.61 171.257 135.567 171.456 135.193C171.467 135.174 171.772 134.821 172.176 134.484C172.579 134.146 173.091 133.762 173.59 133.403C174.587 132.685 175.53 132.07 175.53 132.07C176.022 131.75 175.786 130.986 175.2 130.998C175.2 130.998 175.057 131.006 174.599 130.919C174.141 130.831 173.413 130.647 172.377 130.26C171.424 129.904 170.285 129.133 169.407 128.435C168.968 128.087 168.59 127.757 168.323 127.51C168.291 127.48 168.278 127.466 168.249 127.439C168.528 127.188 168.566 126.786 168.51 126.534C168.452 126.276 168.34 126.067 168.214 125.863C167.962 125.456 167.642 125.094 167.42 124.872L167.42 124.872C167.452 124.904 167.354 124.79 167.256 124.646C167.157 124.501 167.03 124.306 166.886 124.081C166.6 123.631 166.249 123.058 165.908 122.494C165.225 121.366 164.608 120.317 164.549 120.218C164.548 120.216 164.4 119.905 164.114 119.714C164.069 119.684 164.02 119.66 163.968 119.644C163.645 119.54 163.388 119.564 163.056 119.581C162.725 119.598 162.356 119.637 162.007 119.682C161.424 119.757 161.061 119.822 160.903 119.85C160.509 119.642 157.424 117.933 156.29 114.451C156.081 113.813 155.136 113.976 155.153 114.648C155.159 114.876 154.813 115.558 154.888 116.589C153.518 115.763 152.339 114.451 151.312 111.748C151.123 111.25 150.42 111.244 150.224 111.74C149.83 112.729 149.807 113.556 149.886 114.198C148.585 113.586 146.453 112.239 145.989 109.562C145.889 108.989 145.104 108.898 144.877 109.434C144.494 110.336 144.46 111.083 144.524 111.685C142.098 110.644 135.417 108.211 125.445 108.157C123.52 107.98 121.991 107.017 120.734 105.573C119.478 104.129 118.524 102.203 117.848 100.21C117.172 98.216 116.773 96.1551 116.592 94.4551C116.411 92.7549 116.487 91.3494 116.614 90.9464C116.698 90.6777 116.578 90.3872 116.329 90.2559C116.329 90.2559 104.135 83.841 80.2962 81.0211C71.3579 79.9638 63.0263 79.6407 56.1017 79.6486L56.1005 79.6485ZM83.9396 92.352C80.3073 92.3794 76.4083 92.5148 72.3115 92.806C50.4263 94.3615 28.3935 102.008 28.3935 102.008C27.6887 102.251 28.0041 103.308 28.7269 103.125C28.7269 103.125 73.6644 91.8463 111.203 98.4573C111.237 98.4633 111.27 98.4663 111.304 98.4664H111.306C111.699 98.4663 111.979 98.0856 111.863 97.7103L110.882 94.5441C110.817 94.3354 110.641 94.1802 110.426 94.142C110.426 94.142 99.678 92.234 83.9405 92.3522C83.939 92.3522 83.9374 92.3522 83.936 92.3522L83.9396 92.352ZM110.624 99.0958C106.761 99.0794 94.8755 99.5661 77.0236 105.152C54.6197 112.162 41.8681 122.128 41.8681 122.128C41.3062 122.573 41.885 123.443 42.512 123.096C42.512 123.096 75.6851 104.595 113.043 103.545C113.434 103.534 113.703 103.15 113.58 102.779L112.507 99.5298C112.432 99.3044 112.229 99.1466 111.992 99.1308C111.992 99.1308 111.516 99.0995 110.625 99.0957L110.624 99.0958ZM135.05 99.0416C134.478 99.05 134.258 99.7915 134.734 100.11H134.735C134.769 100.133 134.805 100.152 134.844 100.167C145.089 104.332 153.975 109.838 160.863 117.406C160.869 117.412 160.875 117.419 160.882 117.425L160.883 117.426C161.001 117.545 161.165 117.607 161.333 117.596L163.004 117.486C163.479 117.455 163.719 116.9 163.416 116.534C163.416 116.534 153.738 104.804 135.283 99.0875C135.281 99.0867 135.279 99.0852 135.277 99.0844C135.268 99.0809 135.258 99.0776 135.249 99.0745C135.244 99.0725 135.238 99.071 135.233 99.0691C135.174 99.0503 135.112 99.0409 135.05 99.0416ZM164.222 123.739C164.557 123.806 165.189 125.05 165.77 125.938C165.821 126.011 165.872 126.087 165.921 126.148C165.921 126.154 165.922 126.157 165.926 126.163C165.992 126.256 166.057 126.353 166.12 126.431C166.151 126.617 166.204 126.731 165.77 126.641C165.733 126.45 165.67 126.395 165.67 126.395C165.67 126.395 164.621 125.771 164.299 125.328C163.978 124.885 163.921 124.111 164.078 123.817C164.116 123.752 164.165 123.728 164.222 123.739Z" fill="black"/>
<path d="M56.1013 77.8867C44.5919 77.8999 36.9806 78.8322 36.9806 78.8322C36.9806 78.8322 79.0626 76.8125 112.774 90.4608C113.92 95.5865 117.367 104.123 119.224 108.227C113.911 111.9 107.919 115.355 106.986 127.606C106.054 139.857 116.586 150.633 129.648 150.965C142.05 151.626 150.62 151.72 161.006 157.105C170.92 162.587 179.05 179.29 179.854 194.313C180.723 183.167 176.54 159.197 157.021 151.918C184.297 156.691 186.701 176.908 186.702 176.916C186.702 176.916 188.735 153.574 152.063 148.193C147.415 147.511 141.536 146.986 135.591 146.971C106.198 147.359 105.126 113.07 127.275 111.339C136.454 110.581 147.414 115.533 158.129 120.523C158.089 121.854 158.145 123.036 159.019 124.129C159.893 125.222 163.25 126.413 164.323 127.029C165.396 127.645 168.833 129.83 170.939 132.571C171.396 131.717 175.21 129.234 175.21 129.234C175.21 129.234 174.296 129.254 172.171 128.46C170.045 127.665 167.522 125.261 167.462 125.122C167.403 124.983 167.363 124.765 167.86 124.665C168.237 124.348 167.383 123.315 167.005 122.937C166.628 122.56 164.105 118.269 164.046 118.17C163.986 118.071 163.966 117.971 163.787 117.852C163.231 117.673 160.787 118.11 160.787 118.11C160.787 118.11 157.029 116.264 155.734 112.285C155.753 112.982 155.089 113.743 155.734 115.345C153.774 114.516 152.091 113.102 150.764 109.608C149.974 111.595 150.764 112.859 150.764 112.859C150.764 112.859 146.15 111.569 145.412 107.314C144.602 109.224 145.412 110.373 145.412 110.373C145.412 110.373 137.889 106.448 125.391 106.391C117.023 105.624 115.28 90.903 116.056 88.4249C116.056 88.4249 103.986 82.0635 80.2264 79.2534C71.3167 78.1994 63.0073 77.8769 56.1014 77.8848L56.1013 77.8867ZM83.9435 90.5902C80.3225 90.6175 76.4356 90.7526 72.3521 91.0429C50.5743 92.5908 28.5864 100.214 28.5864 100.214C28.5864 100.214 73.5786 88.8933 111.309 95.5374H111.31L110.329 92.3711C110.329 92.3711 99.6356 90.4719 83.945 90.5901L83.9435 90.5902ZM110.62 97.3336C106.812 97.3175 94.9876 97.7964 77.197 103.363C54.8829 110.345 42.2274 120.242 42.2274 120.242C42.2274 120.242 75.4856 101.672 113.024 100.617L111.95 97.3681C111.95 97.3681 111.499 97.3377 110.62 97.3339L110.62 97.3336ZM135.058 97.2791C145.362 101.468 154.331 107.018 161.294 114.667L161.295 114.668L162.966 114.559C162.966 114.559 153.389 102.939 135.058 97.2791ZM163.461 119.616L165.511 121.127C165.768 120.681 166.804 123.496 167.434 124.278C167.461 124.434 166.387 125.689 166.022 125.614C165.991 125.453 164.323 124.971 164.323 124.971C164.323 124.971 162.427 123.826 162.157 123.454C161.886 123.082 163.329 119.863 163.461 119.616Z" fill="white" stroke="white" stroke-width="2.9864" stroke-linejoin="round"/>
<path d="M56.1013 77.8867C44.5919 77.8999 36.9806 78.8322 36.9806 78.8322C36.9806 78.8322 79.0626 76.8125 112.774 90.4608C113.92 95.5865 117.367 104.123 119.224 108.227C113.911 111.9 107.919 115.355 106.986 127.606C106.054 139.857 116.586 150.633 129.648 150.965C142.05 151.626 150.62 151.72 161.006 157.105C170.92 162.587 179.05 179.29 179.854 194.313C180.723 183.167 176.54 159.197 157.021 151.918C184.297 156.691 186.701 176.908 186.702 176.916C186.702 176.916 188.735 153.574 152.063 148.193C147.415 147.511 141.536 146.986 135.591 146.971C106.198 147.359 105.126 113.07 127.275 111.339C136.454 110.581 147.414 115.533 158.129 120.523C158.089 121.854 158.145 123.036 159.019 124.129C159.893 125.222 163.25 126.413 164.323 127.029C165.396 127.645 168.833 129.83 170.939 132.571C171.396 131.717 175.21 129.234 175.21 129.234C175.21 129.234 174.296 129.254 172.171 128.46C170.045 127.665 167.522 125.261 167.462 125.122C167.403 124.983 167.363 124.765 167.86 124.665C168.237 124.348 167.383 123.315 167.005 122.937C166.628 122.56 164.105 118.269 164.046 118.17C163.986 118.071 163.966 117.971 163.787 117.852C163.231 117.673 160.787 118.11 160.787 118.11C160.787 118.11 157.029 116.264 155.734 112.285C155.753 112.982 155.089 113.743 155.734 115.345C153.774 114.516 152.091 113.102 150.764 109.608C149.974 111.595 150.764 112.859 150.764 112.859C150.764 112.859 146.15 111.569 145.412 107.314C144.602 109.224 145.412 110.373 145.412 110.373C145.412 110.373 137.889 106.448 125.391 106.391C117.023 105.624 115.28 90.903 116.056 88.4249C116.056 88.4249 103.986 82.0635 80.2264 79.2534C71.3167 78.1994 63.0073 77.8769 56.1014 77.8848L56.1013 77.8867ZM83.9435 90.5902C80.3225 90.6175 76.4356 90.7526 72.3521 91.0429C50.5743 92.5908 28.5864 100.214 28.5864 100.214C28.5864 100.214 73.5786 88.8933 111.309 95.5374H111.31L110.329 92.3711C110.329 92.3711 99.636 90.5901 83.945 90.5901L83.9435 90.5902ZM110.62 97.3336C106.812 97.3175 94.9876 97.7964 77.197 103.363C54.8829 110.345 42.2274 120.242 42.2274 120.242C42.2274 120.242 75.4856 101.672 113.024 100.617L111.95 97.3681C111.95 97.3681 111.499 97.3377 110.62 97.3339L110.62 97.3336ZM135.058 97.2791C145.362 101.468 154.331 107.018 161.294 114.667L161.295 114.668L162.966 114.559C162.966 114.559 153.389 102.939 135.058 97.2791ZM164.222 121.393C164.557 121.46 165.19 122.704 165.771 123.592C165.822 123.664 165.874 123.741 165.923 123.802C165.924 123.807 165.924 123.811 165.925 123.816C165.991 123.91 166.057 124.007 166.12 124.085C166.151 124.271 166.204 124.384 165.77 124.295C165.733 124.104 165.67 124.049 165.67 124.049C165.67 124.049 164.621 123.424 164.299 122.982C163.977 122.539 163.92 121.765 164.077 121.471C164.116 121.405 164.165 121.381 164.222 121.393Z" fill="white"/>
</g>
</g>
<defs>
<linearGradient id="paint0_linear_33_891" x1="98.3323" y1="166.418" x2="144.69" y2="120.06" gradientUnits="userSpaceOnUse">
<stop stop-color="#249EFF"/>
<stop offset="1" stop-color="#2777FF"/>
</linearGradient>
<clipPath id="clip0_33_891">
<rect width="256" height="256" fill="white"/>
</clipPath>
<clipPath id="clip1_33_891">
<rect width="200" height="200" fill="white" transform="translate(28 28)"/>
</clipPath>
</defs>
</svg>

<svg xmlns="http://www.w3.org/2000/svg" width="256" height="256" fill="none" viewBox="0 0 256 256"><g clip-path="url(#a)"><path fill="#242938" d="M196 0H60A60 60 0 0 0 0 60v136a60 60 0 0 0 60 60h136a60 60 0 0 0 60-60V60a60 60 0 0 0-60-60"/><g clip-path="url(#b)"><path fill="url(#c)" d="M128 198.98a70.98 70.98 0 1 0 0-141.96 70.98 70.98 0 0 0 0 141.96"/><path fill="#000" d="M198.91 126.04a71 71 0 0 1-70.91 69.6 71 71 0 0 1-70.92-69.03q-.04.69-.06 1.39a70.99 70.99 0 0 0 141.96 0q-.01-.98-.06-1.96" opacity=".3"/><path fill="#fff" d="M128 57.02A71 71 0 0 0 57 128l.07 1.96A71 71 0 0 1 128 60.36a71 71 0 0 1 70.91 69.03l.07-1.39A70.97 70.97 0 0 0 128 57.02" opacity=".1"/><path fill="#000" d="M56.1 79.65c-11.5.01-19.08.94-19.15.94h-.04c-.75.1-.66 1.21.1 1.17 0 0 41.79-1.97 75.28 11.49 1.2 5.11 4.35 12.95 6.22 17.11-2.54 1.75-5.26 3.52-7.5 6.32-2.35 2.95-4.13 7.01-4.6 13.23-.96 12.6 9.85 23.64 23.22 23.98 12.4.66 20.84.75 31.1 6.07 4.8 2.66 9.26 8.11 12.6 14.78a57 57 0 0 1 5.94 21.95c.04.73 1.11.74 1.17.01v-.07c.43-5.68-.41-14.48-3.81-22.84-2.86-7-7.57-13.68-14.81-17.86 10.4 2.84 16.37 8.13 19.8 12.96 3.93 5.54 4.5 10.47 4.5 10.44.09.7 1.1.68 1.16-.02 0 0 .52-6.04-3.65-12.7s-13.02-13.94-31.48-16.65a120 120 0 0 0-16.56-1.23c-14.48.2-21.77-8.05-22.9-16.51-.57-4.23.42-8.52 2.88-11.84 2.46-3.31 6.37-5.7 11.75-6.11 8.85-.73 19.64 4.05 30.25 8.99 0 1.22.1 2.46 1 3.58.6.75 1.68 1.27 2.78 1.8 1.1.51 2.24.98 2.69 1.24 1.02.59 4.43 2.78 6.44 5.4.26.33.78.29.98-.09 0-.02.31-.37.72-.7.4-.34.91-.73 1.41-1.09 1-.72 1.94-1.33 1.94-1.33.5-.32.26-1.08-.33-1.07 0 0-.14 0-.6-.08s-1.19-.27-2.22-.66a12 12 0 0 1-2.97-1.82q-.67-.54-1.09-.93l-.07-.07a1 1 0 0 0 .26-.9 2 2 0 0 0-.3-.68c-.25-.4-.57-.77-.79-.99l-.16-.22-.37-.57c-.29-.45-.64-1.02-.98-1.59-.69-1.12-1.3-2.17-1.36-2.27 0 0-.15-.31-.44-.5l-.14-.08c-.32-.1-.58-.08-.91-.06q-.52.03-1.05.1-.88.12-1.1.17a10 10 0 0 1-4.62-5.4c-.2-.64-1.15-.47-1.14.2 0 .23-.34.9-.26 1.94-1.37-.83-2.55-2.14-3.58-4.84a.58.58 0 0 0-1.09-.01 5 5 0 0 0-.33 2.46c-1.3-.61-3.44-1.96-3.9-4.64-.1-.57-.89-.66-1.11-.13a4.4 4.4 0 0 0-.36 2.25c-2.42-1.04-9.1-3.47-19.08-3.52a7 7 0 0 1-4.7-2.59 16 16 0 0 1-2.9-5.36c-.67-2-1.07-4.05-1.25-5.75s-.1-3.11.02-3.51a.6.6 0 0 0-.28-.7s-12.2-6.4-36.03-9.23a206 206 0 0 0-24.2-1.37m27.84 12.7q-5.46.03-11.63.46C50.43 94.36 28.4 102 28.4 102c-.7.24-.39 1.3.34 1.11 0 0 44.93-11.27 82.47-4.66h.1c.4 0 .68-.37.56-.75l-.98-3.17a.6.6 0 0 0-.45-.4s-10.75-1.9-26.49-1.79m26.68 6.75c-3.86-.02-15.74.47-33.6 6.05-22.4 7.01-35.15 16.98-35.15 16.98-.56.44.02 1.31.64.97 0 0 33.18-18.5 70.53-19.55.4-.02.66-.4.54-.77l-1.07-3.25a.6.6 0 0 0-.52-.4q-.01-.02-1.36-.03m24.43-.06c-.57.01-.8.75-.32 1.07l.11.06c10.25 4.16 19.13 9.67 26.02 17.24l.02.02q.19.18.45.17l1.67-.11a.58.58 0 0 0 .42-.96s-9.68-11.73-28.14-17.44l-.03-.02h-.02zm29.17 24.7c.34.07.97 1.31 1.55 2.2l.15.2v.02l.2.27c.03.19.08.3-.35.21-.04-.19-.1-.25-.1-.25s-1.05-.62-1.37-1.06-.38-1.22-.22-1.51q.06-.1.14-.08" opacity=".3"/><path fill="#fff" stroke="#fff" stroke-linejoin="round" stroke-width="2.99" d="M56.1 77.89c-11.5.01-19.12.94-19.12.94s42.08-2.02 75.8 11.63c1.14 5.13 4.59 13.66 6.44 17.77-5.3 3.67-11.3 7.13-12.23 19.38-.94 12.25 9.6 23.02 22.66 23.36 12.4.66 20.97.75 31.36 6.13 9.91 5.49 18.04 22.19 18.84 37.21.87-11.14-3.31-35.11-22.83-42.4 27.28 4.78 29.68 25 29.68 25s2.04-23.34-34.64-28.72a120 120 0 0 0-16.47-1.22c-29.4.39-30.46-33.9-8.31-35.63 9.17-.76 20.13 4.2 30.85 9.18-.04 1.33.02 2.52.89 3.6.87 1.1 4.23 2.3 5.3 2.9 1.08.63 4.51 2.81 6.62 5.55.46-.85 4.27-3.34 4.27-3.34s-.91.02-3.04-.77a16 16 0 0 1-4.7-3.34c-.07-.14-.1-.36.39-.45.38-.32-.48-1.36-.86-1.73-.37-.38-2.9-4.67-2.95-4.77s-.08-.2-.26-.32c-.56-.18-3 .26-3 .26s-3.76-1.85-5.06-5.83c.02.7-.64 1.46 0 3.06-1.96-.82-3.64-2.24-4.97-5.73-.79 1.98 0 3.25 0 3.25s-4.61-1.3-5.35-5.55c-.8 1.91 0 3.06 0 3.06s-7.52-3.92-20.02-3.98c-8.37-.77-10.11-15.49-9.33-17.97 0 0-12.07-6.36-35.83-9.17a205 205 0 0 0-24.13-1.37Zm27.84 12.7q-5.44.03-11.59.45c-21.78 1.55-43.76 9.17-43.76 9.17s44.99-11.32 82.72-4.67l-.98-3.17s-10.7-1.9-26.39-1.78Zm26.68 6.74c-3.8-.01-15.63.47-33.42 6.03-22.32 6.99-34.97 16.88-34.97 16.88s33.26-18.57 70.8-19.62l-1.08-3.25zm24.44-.05c10.3 4.19 19.27 9.74 26.23 17.39l1.68-.11s-9.58-11.62-27.91-17.28Zm28.4 22.34 2.05 1.5c.26-.44 1.3 2.38 1.92 3.16.03.15-1.04 1.4-1.4 1.33-.04-.16-1.7-.64-1.7-.64s-1.9-1.14-2.17-1.52c-.27-.37 1.17-3.59 1.3-3.83Z"/><path fill="#fff" d="M56.1 77.89c-11.5.01-19.12.94-19.12.94s42.08-2.02 75.8 11.63c1.14 5.13 4.59 13.66 6.44 17.77-5.3 3.67-11.3 7.13-12.23 19.38-.94 12.25 9.6 23.02 22.66 23.36 12.4.66 20.97.75 31.36 6.13 9.91 5.49 18.04 22.19 18.84 37.21.87-11.14-3.31-35.11-22.83-42.4 27.28 4.78 29.68 25 29.68 25s2.04-23.34-34.64-28.72a120 120 0 0 0-16.47-1.22c-29.4.39-30.46-33.9-8.31-35.63 9.17-.76 20.13 4.2 30.85 9.18-.04 1.33.02 2.52.89 3.6.87 1.1 4.23 2.3 5.3 2.9 1.08.63 4.51 2.81 6.62 5.55.46-.85 4.27-3.34 4.27-3.34s-.91.02-3.04-.77a16 16 0 0 1-4.7-3.34c-.07-.14-.1-.36.39-.45.38-.32-.48-1.36-.86-1.73-.37-.38-2.9-4.67-2.95-4.77s-.08-.2-.26-.32c-.56-.18-3 .26-3 .26s-3.76-1.85-5.06-5.83c.02.7-.64 1.46 0 3.06-1.96-.82-3.64-2.24-4.97-5.73-.79 1.98 0 3.25 0 3.25s-4.61-1.3-5.35-5.55c-.8 1.91 0 3.06 0 3.06s-7.52-3.92-20.02-3.98c-8.37-.77-10.11-15.49-9.33-17.97 0 0-12.07-6.36-35.83-9.17a205 205 0 0 0-24.13-1.37m27.84 12.7q-5.44.03-11.59.45c-21.78 1.55-43.76 9.17-43.76 9.17s44.99-11.32 82.72-4.67l-.98-3.17s-10.7-1.78-26.39-1.78m26.68 6.74c-3.8-.01-15.63.47-33.42 6.03-22.32 6.99-34.97 16.88-34.97 16.88s33.26-18.57 70.8-19.62l-1.08-3.25zm24.44-.05c10.3 4.19 19.27 9.74 26.23 17.39l1.68-.11s-9.58-11.62-27.91-17.28m29.16 24.11c.34.07.97 1.31 1.55 2.2l.15.21v.02l.2.27c.03.18.08.3-.35.2-.04-.19-.1-.24-.1-.24s-1.05-.63-1.37-1.07-.38-1.22-.22-1.5q.06-.11.14-.09"/></g></g><defs><clipPath id="a"><path fill="#fff" d="M0 0h256v256H0z"/></clipPath><clipPath id="b"><path fill="#fff" d="M28 28h200v200H28z"/></clipPath><linearGradient id="c" x1="98.33" x2="144.69" y1="166.42" y2="120.06" gradientUnits="userSpaceOnUse"><stop stop-color="#249EFF"/><stop offset="1" stop-color="#2777FF"/></linearGradient></defs></svg>
